Catalina-light/actions/22/upload-media.svg

<svg xmlns="http://www.w3.org/2000/svg" viewBox="0 0 22 22">
  <defs id="defs3051">
    <style type="text/css" id="current-color-scheme">
      .ColorScheme-Text {
        color:#4d4d4d
      }
      </style>
  </defs>
 <path 
     style="fill:currentColor;fill-opacity:1;stroke:none"      
	 class="ColorScheme-Text"
        d="M 3.2851562 3 C 2.8363828 3 2.4726562 3.3640808 2.4726562 3.8125 L 2.4726562 18.1875 C 2.4726562 18.63632 2.8366979 19 3.2851562 19 L 18.714844 19 C 19.163628 19 19.527344 18.635919 19.527344 18.1875 L 19.527344 3.8125 C 19.527344 3.3636801 19.163313 3 18.714844 3 L 3.2851562 3 z M 11 4.15625 C 11.115912 4.1489248 11.233602 4.1886031 11.322266 4.2773438 L 13.25 6.40625 C 13.413702 6.5705501 13.413702 6.8356999 13.25 7 C 13.08629 7.1643001 12.820156 7.1643001 12.65625 7 L 11 5.1699219 L 9.34375 7 C 9.1798482 7.1643001 8.9139018 7.1643001 8.75 7 C 8.5860941 6.8356999 8.5860941 6.5705501 8.75 6.40625 L 10.677734 4.2773438 C 10.766407 4.1885664 10.883884 4.1489329 11 4.15625 z M 10.998047 6.7929688 C 11.379763 6.7929688 11.689453 7.1041482 11.689453 7.4863281 C 11.689453 7.868508 11.379763 8.1777344 10.998047 8.1777344 C 10.61633 8.1777344 10.306641 7.868508 10.306641 7.4863281 C 10.306641 7.1041482 10.61633 6.7929688 10.998047 6.7929688 z M 10.998047 8.7714844 C 11.379763 8.7714844 11.689453 9.0807148 11.689453 9.4628906 C 11.689453 9.8450705 11.379763 10.154297 10.998047 10.154297 C 10.61633 10.154297 10.306641 9.8450705 10.306641 9.4628906 C 10.306641 9.0807148 10.61633 8.7714844 10.998047 8.7714844 z M 8.4199219 9.6738281 C 8.5983649 9.6572321 8.7870068 9.748666 8.9433594 9.953125 L 12.158203 14.158203 C 12.470919 14.567154 13.019079 14.602647 13.380859 14.236328 L 14.166016 13.439453 C 14.527481 13.073047 15.060451 13.11731 15.355469 13.539062 L 17.392578 16.451172 C 17.686966 16.873499 17.508764 17.214844 16.994141 17.214844 L 11 17.214844 L 5.2714844 17.214844 C 4.7569149 17.214844 4.5277845 16.842442 4.7597656 16.382812 L 7.9570312 10.044922 C 8.0728588 9.8151072 8.2414789 9.6904241 8.4199219 9.6738281 z "
     />
</svg>

<svg viewBox="0 0 22 22" xmlns="http://www.w3.org/2000/svg">
<defs>
<style id="current-color-scheme" type="text/css">.ColorScheme-Text {
        color:#4d4d4d
      }</style>
</defs>
<path class="ColorScheme-Text" d="m3.2852 3c-0.44877 0-0.8125 0.36408-0.8125 0.8125v14.375c0 0.44882 0.36404 0.8125 0.8125 0.8125h15.43c0.44878 0 0.8125-0.36408 0.8125-0.8125v-14.375c0-0.44882-0.36403-0.8125-0.8125-0.8125h-15.43zm7.7148 1.1562c0.11591-0.0073252 0.2336 0.032353 0.32227 0.12109l1.9277 2.1289c0.1637 0.1643 0.1637 0.42945 0 0.59375-0.16371 0.1643-0.42984 0.1643-0.59375 0l-1.6562-1.8301-1.6562 1.8301c-0.1639 0.1643-0.42985 0.1643-0.59375 0-0.16391-0.1643-0.16391-0.42945 0-0.59375l1.9277-2.1289c0.088673-0.088777 0.20615-0.12841 0.32227-0.12109zm-0.001953 2.6367c0.38172 0 0.69141 0.31118 0.69141 0.69336s-0.30969 0.69141-0.69141 0.69141-0.69141-0.30923-0.69141-0.69141 0.30969-0.69336 0.69141-0.69336zm0 1.9785c0.38172 0 0.69141 0.30923 0.69141 0.69141s-0.30969 0.69141-0.69141 0.69141-0.69141-0.30923-0.69141-0.69141 0.30969-0.69141 0.69141-0.69141zm-2.5781 0.90234c0.17844-0.016596 0.36708 0.074838 0.52344 0.2793l3.2148 4.2051c0.31272 0.40895 0.86088 0.44444 1.2227 0.078125l0.78516-0.79688c0.36146-0.36641 0.89444-0.32214 1.1895 0.099609l2.0371 2.9121c0.29439 0.42233 0.11619 0.76367-0.39844 0.76367h-11.723c-0.51457 0-0.7437-0.3724-0.51172-0.83203l3.1973-6.3379c0.11583-0.22981 0.28445-0.3545 0.46289-0.37109z" fill="currentColor"/>
</svg>
